packages/ffe-icons/icons/open/300/md/magnification_large.svg

<svg xmlns="http://www.w3.org/2000/svg" height="24" viewBox="0 -960 960 960" width="24"><path d="M246.154-370.001h387.692q15.461 0 25.807-10.346 10.346-10.346 10.346-25.807v-227.692q0-15.461-10.346-25.807-10.346-10.346-25.807-10.346H246.154q-15.461 0-25.807 10.346-10.346 10.346-10.346 25.807v227.692q0 15.461 10.346 25.807 10.346 10.346 25.807 10.346Zm-73.845 190q-30.308 0-51.308-21t-21-51.308v-455.382q0-30.308 21-51.308t51.308-21h615.382q30.308 0 51.308 21t21 51.308v455.382q0 30.308-21 51.308t-51.308 21H172.309Zm0-59.999h615.382q4.616 0 8.463-3.846 3.846-3.847 3.846-8.463v-455.382q0-4.616-3.846-8.463-3.847-3.846-8.463-3.846H172.309q-4.616 0-8.463 3.846-3.846 3.847-3.846 8.463v455.382q0 4.616 3.846 8.463 3.847 3.846 8.463 3.846ZM160-240V-720-240Z"/></svg>

<svg xmlns="http://www.w3.org/2000/svg" height="24" viewBox="0 -960 960 960" width="24"><path d="M246.15-370h387.7q15.46 0 25.8-10.35Q670-390.69 670-406.15v-227.7q0-15.46-10.35-25.8Q649.31-670 633.85-670h-387.7q-15.46 0-25.8 10.35Q210-649.31 210-633.85v227.7q0 15.46 10.35 25.8Q230.69-370 246.15-370Zm-73.84 190Q142-180 121-201q-21-21-21-51.31v-455.38Q100-738 121-759q21-21 51.31-21h615.38Q818-780 839-759q21 21 21 51.31v455.38Q860-222 839-201q-21 21-51.31 21H172.31Zm0-60h615.38q4.62 0 8.46-3.85 3.85-3.84 3.85-8.46v-455.38q0-4.62-3.85-8.46-3.84-3.85-8.46-3.85H172.31q-4.62 0-8.46 3.85-3.85 3.84-3.85 8.46v455.38q0 4.62 3.85 8.46 3.84 3.85 8.46 3.85ZM160-240v-480 480Z"/></svg>
